Newaita-dark/apps/22/com.github.alcinnz.odysseus.svg

<svg height="22" viewBox="0 0 22 22" width="22" xmlns="http://www.w3.org/2000/svg" xmlns:xlink="http://www.w3.org/1999/xlink"><linearGradient id="a"><stop offset="0" stop-opacity=".313726"/><stop offset=".222222" stop-opacity=".27451"/><stop offset="1" stop-opacity="0"/></linearGradient><radialGradient id="b" cx="450.908936" cy="189.579361" gradientTransform="matrix(.00000012 -.0537161 -.0966889 -.00000007 30.609667 43.721789)" gradientUnits="userSpaceOnUse" r="21.166656" xlink:href="#a"/><radialGradient id="c" cx="450.908936" cy="189.579361" gradientTransform="matrix(-.00000012 .0537161 .0966889 .00000007 -8.779457 -5.175144)" gradientUnits="userSpaceOnUse" r="21.166656" xlink:href="#a"/><radialGradient id="d" cx="450.908936" cy="189.579361" gradientTransform="matrix(-.00000012 -.0537161 .0966889 -.00000007 -8.779457 43.721789)" gradientUnits="userSpaceOnUse" r="21.166656" xlink:href="#a"/><radialGradient id="e" cx="450.908936" cy="189.579361" gradientTransform="matrix(.00000012 .0537161 -.0966889 .00000007 30.609666 -5.175144)" gradientUnits="userSpaceOnUse" r="21.166656" xlink:href="#a"/><linearGradient id="f" gradientTransform="matrix(.00918504 0 0 .0429729 8.569953 9.239164)" gradientUnits="userSpaceOnUse" x1="255.323059" x2="255.323044" y1="233.5" y2="254.666656"><stop offset="0" stop-opacity=".27451"/><stop offset="1" stop-opacity="0"/></linearGradient><linearGradient id="g" gradientUnits="userSpaceOnUse" x1="10.9151166" x2="10.9151166" y1="1.99106697081" y2="19.27333515"><stop offset="0" stop-color="#4db6ac"/><stop offset="1" stop-color="#26a69a"/></linearGradient><linearGradient id="h" gradientUnits="userSpaceOnUse" x1="10.9151166" x2="10.9151166" y1="19.27333515" y2="1.99106697081"><stop offset="0" stop-color="#bdbdbd"/><stop offset="1" stop-color="#e0e0e0"/></linearGradient><linearGradient id="i" gradientUnits="userSpaceOnUse" x1="9.55071055" x2="9.55071055" y1="12.51635236904" y2="7.83845351726"><stop offset="0" stop-color="#8d6e63"/><stop offset="1" stop-color="#a1887f"/></linearGradient><linearGradient id="j" gradientUnits="userSpaceOnUse" x1="9.550706775" x2="9.550706775" y1="11.34687918452" y2="9.00792975863"><stop offset="0" stop-color="#424242"/><stop offset="1" stop-color="#616161"/></linearGradient><path d="m12.507812 19.273438h1.816407v-.910157h-1.816407zm0 0" fill="url(#b)"/><path d="m9.324219 19.273438h-1.820313v.910156h1.820313zm0 0" fill="url(#c)"/><path d="m9.324219 19.273438h-1.820313v-.910157h1.820313zm0 0" fill="url(#d)"/><path d="m12.507812 19.273438h1.816407v.910156h-1.816407zm0 0" fill="url(#e)"/><path d="m9.324219 19.046875h3.183593v1.136719h-3.183593zm0 0" fill="url(#f)"/><path d="m10.914062 1.992188c4.773438 0 8.640626 3.867187 8.640626 8.640624 0 4.773438-3.867188 8.640626-8.640626 8.640626-4.769531 0-8.640624-3.867188-8.640624-8.640626 0-4.773437 3.871093-8.640624 8.640624-8.640624zm0 0" fill="url(#g)"/><path d="m10.914062 19.273438c-4.785156 0-8.640624-3.855469-8.640624-8.640626 0-.027343 0-.058593 0-.085937.046874 4.75 3.882812 8.558594 8.640624 8.558594 4.761719 0 8.597657-3.808594 8.640626-8.558594v.085937c0 4.785157-3.851563 8.640626-8.640626 8.640626zm0 0" fill-opacity=".196078"/><path d="m10.914062 1.992188c-4.785156 0-8.640624 3.851562-8.640624 8.640624v.085938c.046874-4.75 3.882812-8.558594 8.640624-8.558594 4.761719 0 8.597657 3.808594 8.640626 8.558594 0-.03125 0-.058594 0-.085938 0-4.789062-3.851563-8.640624-8.640626-8.640624zm0 0" fill="#fff" fill-opacity=".392157"/><path d="m327.87778 160.782296c4.635921-2.545211 6.63573-8.090136 4.726821-13.089659l-50.449727-129.714885c-2.363411-5.999427-9.544543-8.544639-15.089468-5.272224l-36.723766 21.179796c-5.544925 3.181514-6.999332 10.635348-2.908813 15.725771l87.082593 108.53509c3.272415 3.999618 8.90824 5.181323 13.36236 2.636111zm0 0" style="fill:#fff;fill-opacity:.392157;stroke-width:3;stroke-linecap:round;stroke-linejoin:round;stroke:#212121" transform="matrix(.0429729 0 0 .0429729 0 9.239163)"/><path d="m180.073713-96.011363c-4.635921 2.636112-6.63573 8.181037-4.726821 13.089659l50.449727 129.714886c2.363411 6.090327 9.544543 8.635539 15.180369 5.363124l36.632865-21.179796c5.635826-3.272414 6.999332-10.726248 2.999714-15.725771l-87.173494-108.62599c-3.181514-3.999618-8.81734-5.090423-13.36236-2.636112zm0 0" fill="none" stroke="#212121" stroke-linecap="round" stroke-linejoin="round" stroke-width="3" transform="matrix(.0429729 0 0 .0429729 0 9.239163)"/><path d="m7.738281 5.113281c-.199219.113281-.285156.351563-.203125.5625l2.167969 5.574219c.101563.261719.410156.371094.652344.230469l1.574219-.910157c.242187-.140624.300781-.460937.128906-.675781l-3.746094-4.667969c-.136719-.171874-.378906-.21875-.574219-.113281zm0 0" fill-opacity=".235294"/><path d="m10.914062 1.925781c-4.820312 0-8.703124 3.882813-8.703124 8.707031 0 4.820313 3.882812 8.703126 8.703124 8.703126 4.824219 0 8.707032-3.882813 8.707032-8.703126 0-4.824218-3.882813-8.707031-8.707032-8.707031zm0 .128907c4.753907 0 8.578126 3.824218 8.578126 8.578124 0 4.75-3.824219 8.574219-8.578126 8.574219-4.75 0-8.574218-3.824219-8.574218-8.574219 0-4.753906 3.824218-8.578124 8.574218-8.578124zm0 0" fill="#212121"/><path d="m6.820312 14.269531s.910157-1.105469 2.332032-1.359375c2.679687-.476562 4.28125-1.460937 5.175781-2.40625 1.125-1.183594 1.589844-2.601562 1.589844-2.601562s-6.367188-1.816406-8.675781.910156c-1.695313 2-.421876 5.457031-.421876 5.457031zm0 0" fill="url(#h)"/><path d="m9.550781 8.359375c1.003907 0 1.820313.8125 1.820313 1.816406 0 1.007813-.816406 1.820313-1.820313 1.820313-1.003906 0-1.820312-.8125-1.820312-1.820313 0-1.003906.816406-1.816406 1.820312-1.816406zm0 0" fill="url(#i)"/><path d="m9.550781 9.269531c.503907 0 .910157.40625.910157.90625 0 .503907-.40625.910157-.910157.910157-.503906 0-.910156-.40625-.910156-.910157 0-.5.40625-.90625.910156-.90625zm0 0" fill="url(#j)"/><path d="m11.640625 7.308594c-1.664063 0-3.40625.332031-4.398437 1.503906-.707032.832031-.898438 1.917969-.878907 2.90625.019531-.917969.230469-1.890625.878907-2.65625.992187-1.171875 2.734374-1.503906 4.398437-1.5 1.945313.003906 3.78125.460938 4.191406.570312.058594-.144531.085938-.230468.085938-.230468s-2.070313-.589844-4.277344-.59375zm0 0" fill="#fff"/><path d="m15.753906 8.316406c-.21875.503906-.675781 1.398438-1.425781 2.1875-.894531.945313-2.496094 1.929688-5.175781 2.40625-1.421875.253906-2.332032 1.359375-2.332032 1.359375s-.410156-1.117187-.453124-2.445312c-.054688 1.519531.453124 2.902343.453124 2.902343s.910157-1.109374 2.332032-1.363281c2.679687-.476562 4.28125-1.457031 5.175781-2.402343 1.125-1.1875 1.589844-2.601563 1.589844-2.601563s-.058594-.015625-.164063-.042969zm0 0" fill-opacity=".235294"/><g fill="none" stroke="#212121" stroke-width="3" transform="matrix(.0429729 0 0 .0429729 0 9.239163)"><path d="m158.712116 117.059199s21.179796-25.724816 54.267545-31.633343c62.357682-11.08985 99.62685-33.996753 120.443044-55.994653 26.179318-27.542824 36.996467-60.539673 36.996467-60.539673s-148.167669-42.268691-201.889811 21.179796c-39.450778 46.54101-9.817245 126.987873-9.817245 126.987873zm0 0"/><path d="m222.251503-20.473122c23.361406 0 42.359592 18.907286 42.359592 42.268691 0 23.452306-18.998186 42.359591-42.359592 42.359591-23.361405 0-42.359591-18.907285-42.359591-42.359591 0-23.361405 18.998186-42.268691 42.359591-42.268691zm0 0" stroke-linecap="round" stroke-linejoin="round"/><path d="m222.251503.706674c11.726153 0 21.179796 9.453642 21.179796 21.088895 0 11.726153-9.453643 21.179796-21.179796 21.179796s-21.179795-9.453643-21.179795-21.179796c0-11.635253 9.453642-21.088895 21.179795-21.088895zm0 0" stroke-linecap="round" stroke-linejoin="round"/></g><path d="m9.324219 9.496094c.25 0 .453125.203125.453125.453125 0 .253906-.203125.457031-.453125.457031-.253907 0-.457031-.203125-.457031-.457031 0-.25.203124-.453125.457031-.453125zm0 0" fill="#fff" fill-opacity=".156863"/></svg>

<?xml version="1.0" encoding="UTF-8"?>
<svg xmlns="http://www.w3.org/2000/svg" xmlns:xlink="http://www.w3.org/1999/xlink" width="22px" height="22px" viewBox="0 0 22 22" version="1.1">
<defs>
<radialGradient id="radial0" gradientUnits="userSpaceOnUse" cx="450.908936" cy="189.579361" fx="450.908936" fy="189.579361" r="21.166656" gradientTransform="matrix(0.000000119742,-0.0537161,-0.0966889,-0.0000000698078,30.609667,43.721789)">
<stop offset="0" style="stop-color:rgb(0%,0%,0%);stop-opacity:0.313726;"/>
<stop offset="0.222222" style="stop-color:rgb(0%,0%,0%);stop-opacity:0.27451;"/>
<stop offset="1" style="stop-color:rgb(0%,0%,0%);stop-opacity:0;"/>
</radialGradient>
<radialGradient id="radial1" gradientUnits="userSpaceOnUse" cx="450.908936" cy="189.579361" fx="450.908936" fy="189.579361" r="21.166656" gradientTransform="matrix(-0.000000119742,0.0537161,0.0966889,0.0000000698078,-8.779457,-5.175144)">
<stop offset="0" style="stop-color:rgb(0%,0%,0%);stop-opacity:0.313726;"/>
<stop offset="0.222222" style="stop-color:rgb(0%,0%,0%);stop-opacity:0.27451;"/>
<stop offset="1" style="stop-color:rgb(0%,0%,0%);stop-opacity:0;"/>
</radialGradient>
<radialGradient id="radial2" gradientUnits="userSpaceOnUse" cx="450.908936" cy="189.579361" fx="450.908936" fy="189.579361" r="21.166656" gradientTransform="matrix(-0.000000119742,-0.0537161,0.0966889,-0.0000000698078,-8.779457,43.721789)">
<stop offset="0" style="stop-color:rgb(0%,0%,0%);stop-opacity:0.313726;"/>
<stop offset="0.222222" style="stop-color:rgb(0%,0%,0%);stop-opacity:0.27451;"/>
<stop offset="1" style="stop-color:rgb(0%,0%,0%);stop-opacity:0;"/>
</radialGradient>
<radialGradient id="radial3" gradientUnits="userSpaceOnUse" cx="450.908936" cy="189.579361" fx="450.908936" fy="189.579361" r="21.166656" gradientTransform="matrix(0.000000119742,0.0537161,-0.0966889,0.0000000698078,30.609666,-5.175144)">
<stop offset="0" style="stop-color:rgb(0%,0%,0%);stop-opacity:0.313726;"/>
<stop offset="0.222222" style="stop-color:rgb(0%,0%,0%);stop-opacity:0.27451;"/>
<stop offset="1" style="stop-color:rgb(0%,0%,0%);stop-opacity:0;"/>
</radialGradient>
<linearGradient id="linear0" gradientUnits="userSpaceOnUse" x1="255.323059" y1="233.5" x2="255.323044" y2="254.666656" gradientTransform="matrix(0.00918504,0,0,0.0429729,8.569953,9.239164)">
<stop offset="0" style="stop-color:rgb(0%,0%,0%);stop-opacity:0.27451;"/>
<stop offset="1" style="stop-color:rgb(0%,0%,0%);stop-opacity:0;"/>
</linearGradient>
<linearGradient id="linear1" gradientUnits="userSpaceOnUse" x1="254" y1="-168.666672" x2="254" y2="233.5" gradientTransform="matrix(0.0429729,0,0,0.0429729,0,9.239163)">
<stop offset="0" style="stop-color:rgb(30.19608%,71.372551%,67.450982%);stop-opacity:1;"/>
<stop offset="1" style="stop-color:rgb(14.901961%,65.098041%,60.392159%);stop-opacity:1;"/>
</linearGradient>
<linearGradient id="linear2" gradientUnits="userSpaceOnUse" x1="254" y1="233.5" x2="254" y2="-168.666672" gradientTransform="matrix(0.0429729,0,0,0.0429729,0,9.239163)">
<stop offset="0" style="stop-color:rgb(74.117649%,74.117649%,74.117649%);stop-opacity:1;"/>
<stop offset="1" style="stop-color:rgb(87.843138%,87.843138%,87.843138%);stop-opacity:1;"/>
</linearGradient>
<linearGradient id="linear3" gradientUnits="userSpaceOnUse" x1="222.25" y1="64.166664" x2="222.25" y2="-31.083334" gradientTransform="matrix(0.0491118,0,0,0.0491118,-1.364387,9.365012)">
<stop offset="0" style="stop-color:rgb(55.29412%,43.137255%,38.82353%);stop-opacity:1;"/>
<stop offset="1" style="stop-color:rgb(63.137257%,53.333336%,49.803922%);stop-opacity:1;"/>
</linearGradient>
<linearGradient id="linear4" gradientUnits="userSpaceOnUse" x1="222.25" y1="64.166664" x2="222.25" y2="-31.083334" gradientTransform="matrix(0.0245559,0,0,0.0245559,4.093158,9.771209)">
<stop offset="0" style="stop-color:rgb(25.882354%,25.882354%,25.882354%);stop-opacity:1;"/>
<stop offset="1" style="stop-color:rgb(38.039216%,38.039216%,38.039216%);stop-opacity:1;"/>
</linearGradient>
</defs>
<g id="surface1">
<path style=" stroke:none;fill-rule:nonzero;fill:url(#radial0);" d="M 12.507812 19.273438 L 14.324219 19.273438 L 14.324219 18.363281 L 12.507812 18.363281 Z M 12.507812 19.273438 "/>
<path style=" stroke:none;fill-rule:nonzero;fill:url(#radial1);" d="M 9.324219 19.273438 L 7.503906 19.273438 L 7.503906 20.183594 L 9.324219 20.183594 Z M 9.324219 19.273438 "/>
<path style=" stroke:none;fill-rule:nonzero;fill:url(#radial2);" d="M 9.324219 19.273438 L 7.503906 19.273438 L 7.503906 18.363281 L 9.324219 18.363281 Z M 9.324219 19.273438 "/>
<path style=" stroke:none;fill-rule:nonzero;fill:url(#radial3);" d="M 12.507812 19.273438 L 14.324219 19.273438 L 14.324219 20.183594 L 12.507812 20.183594 Z M 12.507812 19.273438 "/>
<path style=" stroke:none;fill-rule:nonzero;fill:url(#linear0);" d="M 9.324219 19.046875 L 12.507812 19.046875 L 12.507812 20.183594 L 9.324219 20.183594 Z M 9.324219 19.046875 "/>
<path style=" stroke:none;fill-rule:nonzero;fill:url(#linear1);" d="M 10.914062 1.992188 C 15.6875 1.992188 19.554688 5.859375 19.554688 10.632812 C 19.554688 15.40625 15.6875 19.273438 10.914062 19.273438 C 6.144531 19.273438 2.273438 15.40625 2.273438 10.632812 C 2.273438 5.859375 6.144531 1.992188 10.914062 1.992188 Z M 10.914062 1.992188 "/>
<path style=" stroke:none;fill-rule:nonzero;fill:rgb(0%,0%,0%);fill-opacity:0.196078;" d="M 10.914062 19.273438 C 6.128906 19.273438 2.273438 15.417969 2.273438 10.632812 C 2.273438 10.605469 2.273438 10.574219 2.273438 10.546875 C 2.320312 15.296875 6.15625 19.105469 10.914062 19.105469 C 15.675781 19.105469 19.511719 15.296875 19.554688 10.546875 C 19.554688 10.574219 19.554688 10.605469 19.554688 10.632812 C 19.554688 15.417969 15.703125 19.273438 10.914062 19.273438 Z M 10.914062 19.273438 "/>
<path style=" stroke:none;fill-rule:nonzero;fill:rgb(100%,100%,100%);fill-opacity:0.392157;" d="M 10.914062 1.992188 C 6.128906 1.992188 2.273438 5.84375 2.273438 10.632812 C 2.273438 10.660156 2.273438 10.6875 2.273438 10.71875 C 2.320312 5.96875 6.15625 2.160156 10.914062 2.160156 C 15.675781 2.160156 19.511719 5.96875 19.554688 10.71875 C 19.554688 10.6875 19.554688 10.660156 19.554688 10.632812 C 19.554688 5.84375 15.703125 1.992188 10.914062 1.992188 Z M 10.914062 1.992188 "/>
<path style="fill-rule:nonzero;fill:rgb(100%,100%,100%);fill-opacity:0.392157;stroke-width:3;stroke-linecap:round;stroke-linejoin:round;stroke:rgb(12.941177%,12.941177%,12.941177%);stroke-opacity:1;stroke-miterlimit:4;" d="M 327.87778 160.782296 C 332.513701 158.237085 334.51351 152.69216 332.604601 147.692637 L 282.154874 17.977752 C 279.791463 11.978325 272.610331 9.433113 267.065406 12.705528 L 230.34164 33.885324 C 224.796715 37.066838 223.342308 44.520672 227.432827 49.611095 L 314.51542 158.146185 C 317.787835 162.145803 323.42366 163.327508 327.87778 160.782296 Z M 327.87778 160.782296 " transform="matrix(0.0429729,0,0,0.0429729,0,9.239163)"/>
<path style="fill:none;stroke-width:3;stroke-linecap:round;stroke-linejoin:round;stroke:rgb(12.941177%,12.941177%,12.941177%);stroke-opacity:1;stroke-miterlimit:4;" d="M 180.073713 -96.011363 C 175.437792 -93.375251 173.437983 -87.830326 175.346892 -82.921704 L 225.796619 46.793182 C 228.16003 52.883509 235.341162 55.428721 240.976988 52.156306 L 277.609853 30.97651 C 283.245679 27.704096 284.609185 20.250262 280.609567 15.250739 L 193.436073 -93.375251 C 190.254559 -97.374869 184.618733 -98.465674 180.073713 -96.011363 Z M 180.073713 -96.011363 " transform="matrix(0.0429729,0,0,0.0429729,0,9.239163)"/>
<path style=" stroke:none;fill-rule:nonzero;fill:rgb(0%,0%,0%);fill-opacity:0.235294;" d="M 7.738281 5.113281 C 7.539062 5.226562 7.453125 5.464844 7.535156 5.675781 L 9.703125 11.25 C 9.804688 11.511719 10.113281 11.621094 10.355469 11.480469 L 11.929688 10.570312 C 12.171875 10.429688 12.230469 10.109375 12.058594 9.894531 L 8.3125 5.226562 C 8.175781 5.054688 7.933594 5.007812 7.738281 5.113281 Z M 7.738281 5.113281 "/>
<path style=" stroke:none;fill-rule:nonzero;fill:rgb(12.941177%,12.941177%,12.941177%);fill-opacity:1;" d="M 10.914062 1.925781 C 6.09375 1.925781 2.210938 5.808594 2.210938 10.632812 C 2.210938 15.453125 6.09375 19.335938 10.914062 19.335938 C 15.738281 19.335938 19.621094 15.453125 19.621094 10.632812 C 19.621094 5.808594 15.738281 1.925781 10.914062 1.925781 Z M 10.914062 2.054688 C 15.667969 2.054688 19.492188 5.878906 19.492188 10.632812 C 19.492188 15.382812 15.667969 19.207031 10.914062 19.207031 C 6.164062 19.207031 2.339844 15.382812 2.339844 10.632812 C 2.339844 5.878906 6.164062 2.054688 10.914062 2.054688 Z M 10.914062 2.054688 "/>
<path style=" stroke:none;fill-rule:nonzero;fill:url(#linear2);" d="M 6.820312 14.269531 C 6.820312 14.269531 7.730469 13.164062 9.152344 12.910156 C 11.832031 12.433594 13.433594 11.449219 14.328125 10.503906 C 15.453125 9.320312 15.917969 7.902344 15.917969 7.902344 C 15.917969 7.902344 9.550781 6.085938 7.242188 8.8125 C 5.546875 10.8125 6.820312 14.269531 6.820312 14.269531 Z M 6.820312 14.269531 "/>
<path style=" stroke:none;fill-rule:nonzero;fill:url(#linear3);" d="M 9.550781 8.359375 C 10.554688 8.359375 11.371094 9.171875 11.371094 10.175781 C 11.371094 11.183594 10.554688 11.996094 9.550781 11.996094 C 8.546875 11.996094 7.730469 11.183594 7.730469 10.175781 C 7.730469 9.171875 8.546875 8.359375 9.550781 8.359375 Z M 9.550781 8.359375 "/>
<path style=" stroke:none;fill-rule:nonzero;fill:url(#linear4);" d="M 9.550781 9.269531 C 10.054688 9.269531 10.460938 9.675781 10.460938 10.175781 C 10.460938 10.679688 10.054688 11.085938 9.550781 11.085938 C 9.046875 11.085938 8.640625 10.679688 8.640625 10.175781 C 8.640625 9.675781 9.046875 9.269531 9.550781 9.269531 Z M 9.550781 9.269531 "/>
<path style=" stroke:none;fill-rule:nonzero;fill:rgb(100%,100%,100%);fill-opacity:1;" d="M 11.640625 7.308594 C 9.976562 7.308594 8.234375 7.640625 7.242188 8.8125 C 6.535156 9.644531 6.34375 10.730469 6.363281 11.71875 C 6.382812 10.800781 6.59375 9.828125 7.242188 9.0625 C 8.234375 7.890625 9.976562 7.558594 11.640625 7.5625 C 13.585938 7.566406 15.421875 8.023438 15.832031 8.132812 C 15.890625 7.988281 15.917969 7.902344 15.917969 7.902344 C 15.917969 7.902344 13.847656 7.3125 11.640625 7.308594 Z M 11.640625 7.308594 "/>
<path style=" stroke:none;fill-rule:nonzero;fill:rgb(0%,0%,0%);fill-opacity:0.235294;" d="M 15.753906 8.316406 C 15.535156 8.820312 15.078125 9.714844 14.328125 10.503906 C 13.433594 11.449219 11.832031 12.433594 9.152344 12.910156 C 7.730469 13.164062 6.820312 14.269531 6.820312 14.269531 C 6.820312 14.269531 6.410156 13.152344 6.367188 11.824219 C 6.3125 13.34375 6.820312 14.726562 6.820312 14.726562 C 6.820312 14.726562 7.730469 13.617188 9.152344 13.363281 C 11.832031 12.886719 13.433594 11.90625 14.328125 10.960938 C 15.453125 9.773438 15.917969 8.359375 15.917969 8.359375 C 15.917969 8.359375 15.859375 8.34375 15.753906 8.316406 Z M 15.753906 8.316406 "/>
<path style="fill:none;stroke-width:3;stroke-linecap:butt;stroke-linejoin:miter;stroke:rgb(12.941177%,12.941177%,12.941177%);stroke-opacity:1;stroke-miterlimit:4;" d="M 158.712116 117.059199 C 158.712116 117.059199 179.891912 91.334383 212.979661 85.425856 C 275.337343 74.336006 312.606511 51.429103 333.422705 29.431203 C 359.602023 1.888379 370.419172 -31.10847 370.419172 -31.10847 C 370.419172 -31.10847 222.251503 -73.377161 168.529361 -9.928674 C 129.078583 36.612336 158.712116 117.059199 158.712116 117.059199 Z M 158.712116 117.059199 " transform="matrix(0.0429729,0,0,0.0429729,0,9.239163)"/>
<path style="fill:none;stroke-width:3;stroke-linecap:round;stroke-linejoin:round;stroke:rgb(12.941177%,12.941177%,12.941177%);stroke-opacity:1;stroke-miterlimit:4;" d="M 222.251503 -20.473122 C 245.612909 -20.473122 264.611095 -1.565836 264.611095 21.795569 C 264.611095 45.247875 245.612909 64.15516 222.251503 64.15516 C 198.890098 64.15516 179.891912 45.247875 179.891912 21.795569 C 179.891912 -1.565836 198.890098 -20.473122 222.251503 -20.473122 Z M 222.251503 -20.473122 " transform="matrix(0.0429729,0,0,0.0429729,0,9.239163)"/>
<path style="fill:none;stroke-width:3;stroke-linecap:round;stroke-linejoin:round;stroke:rgb(12.941177%,12.941177%,12.941177%);stroke-opacity:1;stroke-miterlimit:4;" d="M 222.251503 0.706674 C 233.977656 0.706674 243.431299 10.160316 243.431299 21.795569 C 243.431299 33.521722 233.977656 42.975365 222.251503 42.975365 C 210.52535 42.975365 201.071708 33.521722 201.071708 21.795569 C 201.071708 10.160316 210.52535 0.706674 222.251503 0.706674 Z M 222.251503 0.706674 " transform="matrix(0.0429729,0,0,0.0429729,0,9.239163)"/>
<path style=" stroke:none;fill-rule:nonzero;fill:rgb(100%,100%,100%);fill-opacity:0.156863;" d="M 9.324219 9.496094 C 9.574219 9.496094 9.777344 9.699219 9.777344 9.949219 C 9.777344 10.203125 9.574219 10.40625 9.324219 10.40625 C 9.070312 10.40625 8.867188 10.203125 8.867188 9.949219 C 8.867188 9.699219 9.070312 9.496094 9.324219 9.496094 Z M 9.324219 9.496094 "/>
</g>
</svg>
